GeneralPlan/dist/assets/img/customer-developer-1.svg

<svg width="73" height="23" viewBox="0 0 73 23" fill="none" xmlns="http://www.w3.org/2000/svg">
<path d="M5.9685 0L0 7.09154L0.00467934 7.09622H0.00233967V22.9872H17.0211L22.7626 15.8934V0H5.9685Z" fill="#9E9E9E"/>
<path d="M3.26151 19.5783H3.10944V17.3767C3.15658 17.3766 3.2036 17.3719 3.24982 17.3626H3.27555C3.97745 17.1614 4.59045 16.3566 4.77294 15.6921C5.042 14.7399 5.14729 12.9056 5.15899 11.5439C5.15899 10.9332 5.15899 10.0395 5.14729 9.71191H12.2973V19.3981L9.87342 19.4192V11.9697H7.41443C7.41443 11.9697 7.3419 14.0567 7.1945 15.154C6.9231 17.1474 6.4926 17.9359 5.86089 18.5582C5.37229 19.0346 4.75642 19.3596 4.08742 19.4941C3.81538 19.548 3.53885 19.5762 3.26151 19.5783Z" fill="white"/>
<path d="M56.2059 0L50.2397 7.09154L50.2421 7.09622H50.2397V22.9872H67.2585L73 15.8934V0H56.2059Z" fill="#9E9E9E"/>
<path d="M54.3341 19.6133V9.67676H58.5759C61.1121 9.67676 62.6867 11.1063 62.6867 13.2377V13.3173C62.6867 15.5025 61.1285 17.2035 58.5034 17.2035H56.9101V19.6133H54.3341ZM56.9077 14.9691H58.3911C59.4861 14.9691 60.195 14.3233 60.195 13.4904C60.195 12.5546 59.5305 11.9299 58.3747 11.9299H56.9077V14.9691Z" fill="white"/>
<path d="M31.0871 0L25.1187 7.09154L25.1233 7.09622H25.1187V22.9872H42.1397L47.8813 15.8934V0H31.0871Z" fill="#9E9E9E"/>
<path d="M33.5977 19.8147C30.6754 19.8147 28.4714 17.6037 28.4714 14.6675V14.637C28.4714 11.6891 30.7245 9.46638 33.7146 9.46638C34.5132 9.45074 35.3055 9.61048 36.0356 9.93431C36.655 10.223 37.2036 10.6439 37.6429 11.1673L35.8952 12.9174L35.7478 12.7326C35.493 12.4361 35.1765 12.1987 34.8205 12.0371C34.4645 11.8754 34.0775 11.7934 33.6866 11.7967C32.2313 11.7967 31.134 13.0063 31.134 14.6043V14.6324C31.134 16.2561 32.2313 17.4797 33.6866 17.4797C34.2786 17.4952 34.8581 17.3078 35.329 16.9486C35.5239 16.795 35.7055 16.6251 35.8718 16.4409L35.8858 16.4246L35.9069 16.3918L37.5961 18.0787C37.1894 18.5572 36.6956 18.9541 36.1409 19.2485C35.3523 19.6427 34.479 19.8372 33.5977 19.8147Z" fill="white"/>
</svg>

<svg width="73" height="23" fill="none" xmlns="http://www.w3.org/2000/svg"><path d="M5.968 0L0 7.092l.005.004H.002v15.891h17.02l5.74-7.094V0H5.969z" fill="#9E9E9E"/><path d="M3.262 19.578h-.153v-2.201a.72.72 0 00.14-.014h.027c.701-.202 1.314-1.006 1.497-1.67.269-.953.374-2.787.386-4.15 0-.61 0-1.503-.012-1.831h7.15v9.686l-2.424.021v-7.45H7.414s-.072 2.088-.22 3.185c-.27 1.993-.701 2.782-1.333 3.404a3.54 3.54 0 01-1.774.936 4.422 4.422 0 01-.825.084z" fill="#fff"/><path d="M56.206 0L50.24 7.092l.002.004h-.002v15.891h17.018L73 15.893V0H56.206z" fill="#9E9E9E"/><path d="M54.334 19.613V9.677h4.242c2.536 0 4.11 1.43 4.11 3.56v.08c0 2.185-1.557 3.886-4.183 3.886H56.91v2.41h-2.576zm2.574-4.644h1.483c1.095 0 1.804-.646 1.804-1.479 0-.935-.664-1.56-1.82-1.56h-1.467v3.04z" fill="#fff"/><path d="M31.087 0L25.12 7.092l.004.004h-.004v15.891h17.02l5.742-7.094V0H31.087z" fill="#9E9E9E"/><path d="M33.598 19.815c-2.923 0-5.127-2.211-5.127-5.148v-.03c0-2.948 2.253-5.17 5.244-5.17a5.46 5.46 0 012.32.467 4.68 4.68 0 011.608 1.233l-1.748 1.75-.147-.184a2.687 2.687 0 00-2.061-.936c-1.456 0-2.553 1.21-2.553 2.807v.028c0 1.624 1.097 2.848 2.553 2.848a2.596 2.596 0 001.642-.531c.195-.154.377-.324.543-.508l.014-.016.02-.033 1.69 1.687c-.407.478-.9.875-1.455 1.17a5.38 5.38 0 01-2.543.566z" fill="#fff"/></svg>7 28.4714 17.6037 28.4714 14.6675V14.637C28.4714 11.6891 30.7245 9.46638 33.7146 9.46638C34.5132 9.45074 35.3055 9.61048 36.0356 9.93431C36.655 10.223 37.2036 10.6439 37.6429 11.1673L35.8952 12.9174L35.7478 12.7326C35.493 12.4361 35.1765 12.1987 34.8205 12.0371C34.4645 11.8754 34.0775 11.7934 33.6866 11.7967C32.2313 11.7967 31.134 13.0063 31.134 14.6043V14.6324C31.134 16.2561 32.2313 17.4797 33.6866 17.4797C34.2786 17.4952 34.8581 17.3078 35.329 16.9486C35.5239 16.795 35.7055 16.6251 35.8718 16.4409L35.8858 16.4246L35.9069 16.3918L37.5961 18.0787C37.1894 18.5572 36.6956 18.9541 36.1409 19.2485C35.3523 19.6427 34.479 19.8372 33.5977 19.8147Z" fill="white"/>
</svg>
